X:0101
T:Queensberry House.
T:You're Welcome Charlie Stewart
N:Aird has no repeat for the second part - must be wrong
M:2/4
L:1/8
Q:1/4=104
I: :: ||
Z:Jack Campin * www.campin.me.uk * 2009
K:D
B|AFED|G2GB| AFED     |E2E
B|AFED|G2GB| AFdF     |D2D:|
A|defd|gfef| defd     |ecB
A|defd|gfeg|(f/g/a) Ac|d2d:|

